X:1
T:Il me prend fantasie
T:Il me prend fantasie
T:Jacques Arcadelt
T:Source : XXVe Livre de Chansons nouvelles à 4 parties---Paris---P.Attaignant---1547. Editor : André Vierendeels (14/01/15).
C:Jacques Arcadelt
%%score [ 1 2 3 4 ]
L:1/8
Q:1/4=100
M:3/2
K:C
V:1 treble nm="Superius" snm="S"
V:2 treble nm="Altus" snm="A"
V:3 treble-8 nm="Tenor" snm="T"
V:4 bass nm="Bassus" snm="B"
V:1
 A4 c4 c4 | B8 A4 | G8 E4 | G8 A4 | E4 F4 F4 | E8 z4 | A4 c4 c4 | B8 A4 | G8 E4 | G8 A4 | %10
w: 1)Il me prend|fan- ta-|si- e|de vous|di- re com-|ment|suis sou- vent|de ma|my- e|traic- té|
w: 2)Mais pre- mier|vous veulx|di- re|que sa|gran- de beaul-|té,|nul nest qui|ne de-|si- re|u- ser|
w: 3)Na- tu- re'a|faict en|el- le|ce qu'à|peu daul- tre'a|faict,|lay- ant fai-|cte si|bel- le,|qui nest|
w: 4)El- le me|faict la|gra- ce|de map-|pe- ler ain-|sy,|tou- tes- fois|que lam-|bras- se,|dont suis|
 E4 F4 F4 |[M:2/2] E4 z2 E2 | G2 G2 AG AB | c4 z2 c2 | Bc dc BA A2- |"^#" A2 G2 A4 | z2 E2 G2 G2 | %17
w: heu- reu- se-|ment, car|il ne fault- * pour _|rien, cé-|der _ ung _ si _ grand|_ _ bien,|car il ne|
w: de pri- vau-|té, et|a- voir de _ ses _|yeulx, ung|re- * gard _ gra- * ti-|* * eux.-|et a- voir|
w: rien si per-|faict, ce-|luy ies- ti- * me'heu- *|reux qui|est _ son _ a- * mou-|* * reux.-|ce- luy ies-|
w: heu- reux, aus-|sy ie|suis seur que _ nul _|bien nest|point _ pa- * reil _ au|_ _ myen,|ie suis seur|
 AG AB c4 | z2 c2 Bc dc | BA A4 G2 | A8 |] %21
w: fault _ pour _ rien|cé- der _ ung _|si _ grand _|bien.|
w: de _ ses _ yeulx,|ung re- * gard _|gra _ _ ti-|eux.|
w: ti- * me'heu- * reux|qui est _ son _|a- * * mou-|reux.|
w: que _ nul _ bien,|nest point _ pa- *|reil _ au- *|myen.|
V:2
 E4 A4 A4 | G8 F4 | D8 C4 | E8 F4 | G4 D6 C2 | B,8 z4 | E4 A4 A4 | G8 F4 | D8 C4 | E8 F4 | %10
w: 5)Sou- vent à|sa fe-|nes- tre,|ie la|voy niz à|niz,|a- lors ne|voul- drois|es- tre|mon- té|
w: 6)Ie la tiens|pour ma|da- me|et la|sers loy- al-|ment,|de cueur, de|corps et|da- me,|sans fail-|
w: 7)Il ne fault|pas qu'on-|pen- se|que ie|ne suis con-|tent,|car tel- le|re- com-|pen- se,|sur- mon-|
 G4 D6 C2 |[M:2/2] B,4 z2 B,2 | E2 E2 F2 F2 | G6 G2 | G2 A2 GF ED | E4 C4 | z2 B,2 E2 E2 | %17
w: au pa- ra-|dis, car|au lieu où el-|l'est, mon|pa- ra- dis _ _ _|y est,|car- au lieu|
w: lir nul- le-|ment, aus-|si son a- my-|tié a|eu de moy _ _ _|pi- tié,|aus- si son|
w: te le rour-|ment, tant|qu'au mon- de se-|ray, ia-|mais ne lou- * * *|bli- ray,|tant qu'au mon-|
 F2 F2 G4- | G2 G2 G2 A2 | GF ED E4 | C8 |] %21
w: où el- l'est|_ mon pa- ra-|dis _ _ _ y|est.|
w: a- my- tié|_ a eu de|moy _ _ _ pi-|tié.|
w: de se- ray,|_ ia- mais ne|l'ou- * * * bli-|ray.|
V:3
 c4 e4 e4 | e6 d2 c4 | B8 G4 | c8 c4 | c4 A4 A4 | G12 | c4 e4 e4 | e6 d2 c4 | B8 G4 | c8 c4 | %10
w: 1)Il me prend|fan- * ta-|si- e|de vous|di- re com-|ment|suis sou- vent|de _ ma|my- e|traic- té|
w: 2)Mais pre- mier|vous _ veulx|di- re|que sa|gran- de beaul-|té,|nul nest qui|ne _ de-|si- re|u- ser|
w: 3)Na- tu- re'a|faict _ en|el- le|ce qu'à|peu daul- tre'a|faict,|lay- ant fai-|cte _ si|bel- le,|qui nest|
w: 4)El- le me|faict _ la|gra- ce|de map-|pe- ler ain-|sy,|tou- tes- fois|que _ lam-|bras- se,|dont suis|
 c4 A4 A4 |[M:2/2] G4 z2 G2 | B2 B2 d2 d2 | e6 e2 | de fe dc BA | B2 B2 A4 | z2 G2 B2 B2 | %17
w: heu- reu- se-|ment, car|il ne fault pour|rien, cé-|der _ ung _ si _ _ _|_ grand bien,|car il ne|
w: de pri- vau-|té, et|a- voir de ses|yeux, ung|re- * gard _ gra- * * *|* ti- eux,|et a- voir|
w: rien si per-|faict, ce-|luy ies- ti- me'heu-|reux qui|est _ son _ a- * * *|* mou- reux.|ce- luy ies-|
w: heu- reux, aus-|sy, ie|suis seur que nul|bien nest|poin _ pa- * reil _ _ _|_ au myen,|ie suis seur|
 d2 d2 e4- | e2 e2 de fe | dc BA B2 B2 | A8 |] %21
w: fault pour rien|_ cé- der _ ung _|si _ _ _ _ grand|bien.|
w: de ses yeulx,|_ ung re- * gard _|gra- * * * * ti-|eux.|
w: ti- me'heu- reux|_ qui est _ son _|a- * * * * mou-|reux.|
w: que nul bien,|_ nest point _ pa- *|reil _ _ _ _ au|myen.|
V:4
 A,,4 A,,4 A,,4 | E,8 F,4 | G,8 C,4 | C,8 F,4 | C,4 D,4 D,4 | E,8 z4 | A,,4 A,,4 A,,4 | E,8 F,4 | %8
w: 5)Sou- vent à|sa fe-|nes- tre,|ie la|voy niz à|niz,|a- lors ne|voul- drois|
w: 6)Ie la tiens|pour ma|da- me|et la|sers loy- al-|ment,|de cueur, de|corps et|
w: 7)Il ne fault|pas qu'on|pen- se|que ie|ne suis con-|tent,|car- tel- le|re- com-|
 G,8 C,4 | C,8 F,4 | C,4 D,4 D,4 |[M:2/2] E,4 z2 E,2 | E,2 E,2 D,2 D,2 | C,6 C,2 | %14
w: es- tre|mon- té|au pa- ra-|dis, car|au lieu où el-|l'est, mon|
w: da- me,|sans fail-|lir nul- le-|ment, aus-|si son a- my-|tié a|
w: pen- se,|sur- mon-|te le tour-|ment, tant|qu'au mon- de se-|ray, ia-|
 G,2 D,2 G,2 A,2 | E,4 A,,4 | z2 E,2 E,2 E,2 | D,2 D,2 C,4- | C,2 C,2 G,2 D,2 | G,2 A,2 E,4 | %20
w: pa- ra- dis _|y est,|car- au lieu|où el- l'est|_ mon pa- ra-|dis _ y|
w: eu de moy _|pi- tié,|aus- si son|a- my- tié|_ a eu de|moy _ pi-|
w: mais ne lou- *|bli- ray,|tant qu'au mon-|de se- ray,|_ ia- mais ne|lou- * bli-|
 A,,8 |] %21
w: est.|
w: tié|
w: ray.|

